resources/icon.svg

<?xml version="1.0" encoding="UTF-8" standalone="no"?>
<svg xmlns="http://www.w3.org/2000/svg" xmlns:cc="http://creativecommons.org/ns#" xmlns:dc="http://purl.org/dc/elements/1.1/" xmlns:rdf="http://www.w3.org/1999/02/22-rdf-syntax-ns#" xmlns:svg="http://www.w3.org/2000/svg" id="svg8" width="28" height="28" style="enable-background:new" version="1.1" viewBox="0 0 7.4083332 7.4083335">
   <metadata id="metadata5">
      <rdf:RDF>
         <cc:Work rdf:about="">
            <dc:format>
               image/svg+xml
            </dc:format>
            <dc:type rdf:resource="http://purl.org/dc/dcmitype/StillImage"/>
            <dc:title/>
         </cc:Work>
      </rdf:RDF>
   </metadata>
   <path id="rect6378" d="m 0.9255249,0 v 4.7196086 l -0.77049561,0.072864 c -0.09372999,0.00889 -0.162365,0.091273 -0.153479,0.1850017 0.0089,0.093729 0.09179039,0.1623655 0.18551839,0.153479 L 0.9255249,5.0606729 V 5.3603964 L 0.17156575,5.5066406 c -0.09242,0.017944 -0.15230172,0.1070472 -0.13435872,0.1994709 0.01793999,0.092424 0.10653026,0.1523019 0.19895426,0.1343589 L 0.9255249,5.7066282 v 1.701705 H 6.7132853 V 5.36298 h 0.5245158 c 0.094149,0 0.1700154,-0.075866 0.1700154,-0.1700154 0,-0.094149 -0.075866,-0.1700154 -0.1700154,-0.1700154 H 6.7132853 V 4.6968708 L 7.24917,4.6426106 C 7.342836,4.6330806 7.4106298,4.5497246 7.4010985,4.4560587 7.3915685,4.3623927 7.3087295,4.2951153 7.2150633,4.3046467 l -0.501778,0.05116 V 0 C 4.7840318,0 2.8547784,0 0.9255249,0 Z m 0.4599202,0.45992023 h 4.86792 V 1.6851684 C 6.2411611,1.6481884 6.2289181,1.6114684 6.2089231,1.5714803 6.0485361,1.2507136 5.8336651,1.1252945 5.5598671,1.135848 5.4686011,1.139368 5.3729784,1.155939 5.2746132,1.181323 5.1065414,1.224696 4.9333452,1.5031104 4.8777382,1.648478 4.8002252,1.8511131 4.8204052,2.0063328 4.8322632,2.1983152 4.8397832,2.3201343 5.0354491,2.49989 5.1836629,2.4711668 5.4138866,2.4265508 5.7833966,2.2265103 6.0766316,2.08256 6.1676556,2.037876 6.2234516,1.98629 6.2533651,1.9285642 V 4.402832 L 5.0198485,4.5278889 C 4.9261825,4.5374189 4.8583884,4.6202589 4.86792,4.713924 4.87745,4.80759 4.960289,4.8753842 5.0539549,4.8658528 L 6.2533651,4.7438966 V 5.0229492 H 5.0312174 c -0.094149,0 -0.1700154,0.075866 -0.1700154,0.1700154 0,0.094149 0.075866,0.1700154 0.1700154,0.1700154 h 1.2221477 v 1.5854331 h -4.86792 V 6.6047648 c 0.05956,0.043998 0.1768409,0.075916 0.2216919,0.055294 0.167648,-0.077085 0.1811612,-0.2334096 0.3803386,-0.4211629 0.092467,-0.087163 0.1640501,-0.2137865 0.3043741,-0.2857707 0.1252993,-0.064277 0.3695625,-0.026334 0.7379395,-0.10542 0.3022436,-0.064888 0.5309227,-0.063038 0.7854818,-0.064595 0.4063796,-0.00249 0.721737,0.011234 1.2324828,0.1080037 0.3591873,0.068054 0.4526299,0.2320327 0.5245159,0.3942911 0.055919,0.1262192 0.03527,0.1792843 0.1255736,0.2837037 0.069905,0.080832 0.2566186,0.1794386 0.3638021,0.085783 C 6.1470113,6.5802959 6.0618303,6.3999361 6.1541463,6.308142 6.2582223,6.2046585 6.2967692,6.0837711 6.1577632,5.9298704 5.6989268,5.6834267 5.374028,5.6318067 4.8053907,5.5552165 4.7048107,5.5454031 4.6453366,5.4307276 4.5712967,5.3619465 4.3959859,5.199087 4.2285271,5.1163526 4.011124,5.0916789 4.019424,5.0636357 4.029494,4.9879403 4.0452304,4.9676555 4.3988458,4.5118004 4.8884625,4.2221774 5.2611771,4.1372152 5.4000465,4.1055591 5.3411106,3.9381395 5.3082025,3.9181071 5.2345756,3.873287 5.1401503,3.8707396 5.0539544,3.8710814 4.8923252,3.8717164 4.7326663,3.9115158 4.5712967,3.9206908 4.0875801,3.9481939 3.6651885,3.9624933 3.2240921,3.9237917 3.078372,3.911007 2.9315095,3.8943764 2.7853592,3.9005375 2.5498474,3.9104673 2.5035408,4.0295512 2.5662511,4.2043947 c 0.023301,0.064966 0.2943794,0.068761 0.427364,0.137976 0.2151081,0.1119579 0.3208814,0.2591295 0.5606894,0.5575887 0.029174,0.03631 0.063678,0.069564 0.084749,0.1111044 0.01171,0.023085 0.01171,0.050504 0.014986,0.076481 -0.1164323,0.00481 -0.2318125,0.015846 -0.3395141,0.058394 -0.078191,0.030891 -0.1232456,0.1144548 -0.1813843,0.175183 -0.1843892,0.1926021 -0.1438638,0.2043864 -0.631486,0.2806031 -0.1120412,0.017513 -0.232733,0.017044 -0.3446818,0.03514 -0.2099659,0.033936 -0.5366534,0.049352 -0.6986654,0.2397786 -0.03167,0.037223 -0.051364,0.071231 -0.072864,0.1059365 V 5.6172282 L 2.6437662,5.3733154 C 2.7361904,5.3553714 2.7960679,5.2662677 2.778125,5.1738445 2.7601809,5.0814202 2.6710777,5.0215426 2.578654,5.0394856 L 1.3854451,5.270996 V 5.0172648 L 2.6282633,4.8994425 C 2.7219923,4.8905525 2.7901122,4.8076535 2.7812256,4.713924 2.7723356,4.6201951 2.6899526,4.5520752 2.5962239,4.5609618 L 1.3854451,4.6756835 V 1.8195272 c 0.101496,0.047583 0.2623808,0.080828 0.3338298,0.1121378 0.2247403,0.098484 0.3745087,0.2458264 0.5208984,0.3224609 0.091165,0.047725 0.4403249,0.1433038 0.5167644,0.074414 C 2.86971,2.2269059 2.889994,1.7611136 2.7941447,1.5471924 2.7116087,1.3629845 2.6190771,1.2388077 2.4634155,1.1131103 2.4178465,1.0763133 2.2452962,1.0354218 2.1182169,1.0376627 c -0.1270792,0.00224 -0.283101,0.026945 -0.361735,0.046509 -0.159859,0.039772 -0.2400836,0.1312211 -0.3472656,0.2563151 -0.0056,0.00651 -0.015631,0.025388 -0.023771,0.038757 z" style="fill:#ffffff;stroke:none;stroke-width:0.04560295;stroke-miterlimit:4;stroke-dasharray:none"/>
</svg>

<svg xmlns="http://www.w3.org/2000/svg" width="28" height="28" viewBox="0 0 7.408 7.408">
   <path d="M.926 0v4.72l-.771.072a.17.17 0 10.032.339l.739-.07v.3l-.754.146a.17.17 0 10.064.333l.69-.133v1.701h5.787V5.363h.525a.17.17 0 100-.34h-.525v-.326l.536-.054a.17.17 0 10-.034-.338l-.502.05V0H.926zm.46.46h4.867v1.225a.806.806 0 00-.044-.114c-.16-.32-.375-.446-.65-.435-.09.003-.186.02-.284.045-.168.044-.342.322-.397.467-.078.203-.058.358-.046.55.008.122.203.302.352.273.23-.044.6-.244.893-.388a.37.37 0 00.176-.154v2.474l-1.233.125a.17.17 0 00-.152.186.17.17 0 00.186.152l1.2-.122v.279H5.03a.17.17 0 100 .34h1.222v1.585H1.385v-.343c.06.044.177.076.222.055.168-.077.181-.233.38-.421.093-.087.165-.214.305-.286.125-.064.37-.026.738-.105.302-.065.53-.063.785-.065.407-.002.722.011 1.233.108.359.068.452.232.524.394.056.127.036.18.126.284.07.08.256.18.364.086.085-.075 0-.255.092-.347.104-.103.143-.224.004-.378-.46-.247-.784-.298-1.353-.375-.1-.01-.16-.124-.234-.193a.93.93 0 00-.56-.27c.008-.028.018-.104.034-.124.354-.456.843-.746 1.216-.83.139-.032.08-.2.047-.22a.486.486 0 00-.254-.047c-.162 0-.321.04-.483.05a9.159 9.159 0 01-1.347.003c-.146-.013-.292-.03-.439-.023-.235.01-.281.129-.219.303.024.065.295.07.428.138.215.112.32.26.56.558.03.036.064.07.085.111.012.023.012.05.015.077a1.03 1.03 0 00-.34.058c-.078.03-.123.114-.18.175-.185.193-.145.205-.632.28-.112.018-.233.018-.345.036-.21.034-.537.05-.699.24-.031.037-.051.07-.073.106v-.366l1.259-.244a.17.17 0 10-.065-.334l-1.194.232v-.254L2.628 4.9a.17.17 0 10-.032-.338l-1.21.115V1.82c.1.047.262.08.333.112.225.098.375.245.521.322.091.048.44.143.517.075.113-.102.133-.568.037-.782a1.078 1.078 0 00-.33-.434c-.046-.037-.219-.078-.346-.075a1.886 1.886 0 00-.362.046c-.16.04-.24.131-.347.256l-.024.04z" fill="#fff"/>
</svg>
